X:1
T:Gia mai l'alma
T:Gia mai l'alma
T:Sigismondo d'india
T:Source : Le Musische a 2 voci di S.d'India---Libro II---Venetia---R.Amadino---1615. Editor : André Vierendeels (02/08/15).
T:Aria(part 3)
T:Notes : Original clefs : C1, C1, F4 Editorial accidentals above the staff See also "Porto Celato"(part 1),"Nudrisco"(part 2) and "Cosi per"(part4).
C:Sigismondo d'india
%%score [ 1 2 ] 3
L:1/8
Q:1/4=76
M:4/4
K:F
V:1 treble nm="Soprano 1" snm="S 1"
V:2 treble nm="Soprano 2" snm="S 2"
V:3 bass nm="MusicXML Part"
V:1
 z4 B4 | B2 A2 c2 z d | G2 A3 G GF/G/ | A2 _e3 d dc/B/ | cc d3 c cB/A/ | B4 A4 | z ABc de f2 | %7
w: Gia|mai l'al- ma re-|spi- ra'e _ _ _ _|_ tro- * * * *|va pa- * * * * *|* ce,|e _ _ _ _ _|
 c2 c4 BA | G GAB cd _e2- | e cd=e f3 e | dc d/c/c/B/ c4 | B8 | z8 | z2 e2 f4- | f2 _e2 e3 d | %15
w: s'io ri- do tal|hor per _ _ _ _ _|_ g'loc- * * * chi|fo- * * * * * *|re,||con- ver-|* s'in pian- to|
 d6 c2 | c2 B2 A4 | G8 | z GAB cA Bc | d2 c2 c3 B | _e3 d g4- | g2 f2 _e4- | e2 A2 A4 | G8 |] %24
w: lan- gue'il|mi- ser co-|re,|con- * * ver- * * *|* so'in pian- to|lan- gue'il mi-|* ser- *|* ser co-|re.|
V:2
 z8 | z2 c2 c2 B2 | _e3 c d2 d2 | cB BA/B/ c2 A2- | AGG^F G4- | G4 ^F4 | z2 z ABc de | f2 c2 d4- | %8
w: |Gia mai l'al-|ma re- spi- ra'e|tro- * * * * va pa-||* ce,|e _ _ _ _|_ s'io ri-|
 d2 cd GG AB | cd _e2 e2 d2 | GA B4 A2 | B8 | z2 d2 d4- | d2 c2 c3 B | B4 A4 | G3 A B2 A2 | %16
w: * do tal hor per _ _|_ _ _ gl'oc- chi|fo- * * *|re,|con- ver-|* so'in pian- to|lan- gue'il|mi- * * ser|
 AB/A/ G4 ^F2 | G8 | z4 z CDE | FG GA A3 F |"^b" G2 e4 d2 | c2 d4 c2 | G6 ^F2 | G8 |] %24
w: co- * * * *|re,|con- * *|ver- * so'in _ pian- *|to lan- gue'il|mi- * ser|co- *|re.|
V:3
 z4 G,4- | G,2 F,2 E,2 D,2 | C,6 B,,2 | A,,2 G,,2 F,,2 F,2- | F,2 D,2 _E,4 | D,6 D,2 | %6
 D,2 C,2 B,,2 B,2- | B,2 A,2 G,2 F,2 | _E,6 D,2 | C,4 D,4 | B,,4 F,4 | B,,6 C,2 | D,2 E,2 F,4- | %13
 F,2 E,2 D,4 | C,6 C,2 | C,2 B,,A,, G,,2 A,,2 | B,,2 C,2 D,4 | G,,6 A,,2 | B,,2 G,,2 F,,2 F,2- | %19
 F,2 E,2 D,4 | C,6 B,,2 | A,,4 G,,2 A,,2 | B,,2 C,2 D,4 | G,,8 |] %24

